X:1
T: Belle of Claremont
C:
R:Reel
Q:232
K:D
M:4/4
L:1/8
|:((3DDD) D2 DF AF|dF AF dF AF|((3EEE) E2 EG BE|eG BG eG FE|
((3DDD) D2 DF AF|dF AF dF AF|Eg fg fe dc|d2d2 d2z2|
fdd2 fd ad|fd df a2ed|cAA2 cA eA|cA Ac eg fe|
fdd2 fd ad|fd df a2A2|Bb ag fe dc|d2d2 d2z2:|
